X:1
T:Ave Regina caelorum 3v
T:Orlando di lasso
T:Source : Magnum opus musicum (1604)---München---First print A.Berg---1575. Editor : André Vierendeels (16/04/15).
T:Notes : Original clefs: C1, C4, F4 Original note values have been halved Editorial accidentals above the staff Square brackets indicate ligatures Music collected by Ferdinando and Rodolpho di Lasso
T:Ave Regina caelorum 3v
C:Orlando di lasso
%%score [ 1 2 3 ]
L:1/8
Q:1/4=96
M:2/2
K:C
V:1 treble nm="Cantus" snm="C"
V:2 treble-8 nm="Tenor" snm="T"
V:3 bass nm="Bassus" snm="B"
V:1
 D4 G4- | G2 G2 A4 | B2 G2 Bc dB | c2 A2 z2 d2 | e3 d cB AG | ^F G2 F G4- | G4 z4 | z8 | z2 c4 BA | %9
w: A- ve|_ Re- gi-|na cae- lo- * * *|* rum, cae-|lo- * * * * *|* * * rum,|_||a- * *|
 G8 | A2 G4 ^F2 | ^F4 A3 B | c2 GA Bc d2 | c4 B2 d2- | dc/B/ AB c3 B/A/ | G6 F2 | E2 G3 F/E/ DE | %17
w: |ve Do- mi-|na An- *|* ge- * * * *|lo- rum, va-||* le|strips sa- * * * *|
 F4 E4 | D2 _B2 A2 B2- | BA FG A2 E2 | GF ED E4 | D2 F3 E/D/ CD |"^#""^#" ED G3 F/E/ F2 | %23
w: |cta, per quam mun-|* * * * * di|lux _ _ _ _|est or- * * * *||
 G4 z2 A2- | A2 G2 c2 c2 | B4 A4- | A4 z2 A2- | A2 G2 c4 | c2 B3 A A2- |"^#" AG/F/ G2 A4- | A4 z4 | %31
w: ta, va-|* le glo- ri-|o- sa,|_ va|_ le glo-|ri- o- * *|* * * * sa,|_|
 z8 | z2 c4 c2 | e4 d3 c/B/ | AB cd ed cB | c2 A2 B2 e2- | e2 d3 c/B/ c2 | d2 A3 G A2 | %38
w: |su- per|o- mnes _ _|_ _ _ _ _ _ _ _|* spe- ci- o|_ _ _ _ _|sa, sal- * *|
 D2 F3 G A2 | E2 A2 fe dc | BA GF E3 D | EF G3 F GA | BG c3 B/A/ B2 | E8 | z4 z2 c2- | %45
w: ve, va- * *|le de- co- * * *||||ra,|et|
 c2 B2 A2 G2 | A4 G2 G2- | G2 F2 E2 D2 | E4 G4 | z4 c4- | c2 B2 A2 G2 | A6 G2 | A2 E2 z4 | z4 e4- | %54
w: _ pro no- bis|sem- per, et|_ pro no- bis|sem- per,|et|_ pro no- bis|sem- per|Chri- stum,|et|
 e2 d2 c2 B2 | c6 B2 | z2 B4 A2 | G2 ^F2 G4- | G2 ^F2 z2 d2- | dc A2 B2 d2- | d2 cB cB BA/G/ | %61
w: pro- pro no- bis|sem- per|et pro|no- bis sem-|* per, Chri-|* * * stum ex-||
 ^F2 G3 F/E/ F2 | !fermata!G8 |] %63
w: * o- * * *|ra.|
V:2
 z8 | z4 D4 | G6 G2 | A4 B4 | z2 G2 AB cB | AG A2 G2 B2 | cd ed cA Bc | AG c3 B/A/ B2 | c2 e4 dc | %9
w: |A-|ve Re-|gi- na|cae- lo- * * *|* * * rum, cae-|lo- * * * * * * *||rum, a- * *|
 B3 c d2 e2 | c3 G _B2 A2 |"^-natural" A2 d3 e f2 | e4 d2 B2 | z2 e3 d/c/ Bc | d4 A2 e2- | %15
w: * * * ve|Do- * * mi-|na An- * *|ge- lo- rum,|va- * * * *|* le, va|
 ed/c/ Bc d2 A2 | c3 B/A/ GA BG |"^#""^#" A2 d3 c/B/ c2 | d8- | d4 z2 c2 | B2 c3 B GA | %21
w: _ _ _ _ _ _ le|strips _ _ _ _ _ _|_ san- * * *|cta,|_ per|quam mun- * * *|
 Bc d2 A2 ed | cB BA/G/ A2 A2 | B3 c d4 | d4 z2 e2- | e2 d2 f4 | f2 e3 d/c/ dA | c2 B2 z2 A2- | %28
w: * * * di lux _|_ _ _ _ _ _ est|or- * *|ta, va-|* le glo-|ri- o- * * * *|* sa, va-|
 A2 G2 c2 c2 | B4 A4 | c4 c2 e2- | e2 d3 c/B/ AB | cd e2 AG AB | cB/A/ GA Bc d2- | %34
w: * le glo- ri-|o- sa,|su- per o-|* mnes _ _ _ _|_ _ _ spe- * * *||
 dc/B/ AB cd e2- | e2 dc d2 cB | c2 f2 e4 | f3 e/d/ c4 | z4 d4 | c4 d4- | d4 G2 c2- | %41
w: ||* ci- o-|sa, _ _ _|Sal-||* ve, va-|
 c2 B2 e2 e2- | e2 dc d4 | c2 c4 B2 | A2 G2 A4 | G2 G2 F2 E2 | FG AB c2 B2 | z2 c4 B2 | %48
w: * le de- co-||ra, et pro|no- bis sem-|per Chri- stum ex-|o- * * * * ra,|et pro|
 A2 G2 EF GD | EF G3 F/E/ F2 | G4 c4 | c2 d2 c4 | F2 c4 B2 | A2 G2 A4 | G4 z2 G2- | G2 F2 E2 D2 | %56
w: no- bis sem- * * *||per Chri-|stum ex- o-|ra, et pro|no- bis sem-|per, et|_ pro no- bis|
 E4 D4 | z2 d4 c2 | B2 A2 B4 | A2 d3 c BA | G8 | A2 _B2 A4 | !fermata!G8 |] %63
w: sem- per,|et pro|no- bis sem-|per Chri- * * *||stum ex- o-|ra.|
V:3
 z8 | z8 | z8 | z4 G,,4 | C,6 C,2 | D,4 E,4 | z2 C,2 E,F, G,E, | F,E, E,D,/C,/ D,4 | A,4 E,4- | %9
w: |||A-|ve Re-|gi- na|cae- lo- * * *||rum, a-|
 E,2 D,C, B,,2 C,2 | F,2 E,2 D,4- | D,4 z2 A,2- | A,B, C2 G,4 | A,4 G,4 | z8 | %15
w: * * * * ve|Do- mi- na|_ An-|* * * ge-|lo- rum,||
 E,3 D,/C,/ B,,C, D,2 | C,2 E,3 F, G,2 | D,4 A,4 | z2 G,2 ^F,2 G,2- | %19
w: va- * * * * *|le strips _ _|san- cta,|per quam mun-|
"^-natural" G,F, D,E, F,G, A,2 | E,2 A,,B,, C,D, E,F, | G,2 D,3 C,/B,,/ A,,B,, | C,D, E,2 D,4 | %23
w: |di lux _ _ _ _ _|_ est _ _ _ _|_ _ _ or-|
 G,,2 G,4 F,2 |"^b""^b" B,2 B,2 A,4 | G,4 z2 D,2- | D,2 C,2 F,2 F,2 | E,4 A,3 G,/F,/ | %28
w: ta, va- le|glo- ri- o-|sa, va-|* le glo- ri-|o- * * *|
 E,3 D, C,2 B,,A,, | E,4 A,,2 F,2- | F,2 F,2 A,4 | G,3 F,/E,/ D,E, F,G, | A,3 G, F,E, F,2 | %33
w: |* sa, su-|* per o-|mnes _ _ _ _ _ _|_ _ _ _ _|
 C,2 C,2 G,4 | F,4 z4 | A,4 G,4 | A,8 | D,3 E, F,E, F,2 | G,2 D,3 E, F,G, | A,G, F,E, D,C, B,,A,, | %40
w: spe- ci- o-|sa,|sal- *||ve _ _ _ _|_ va- * * *||
 G,,A,, B,,2 C,2 A,,B,, | C,D, E,2 C,4 | z8 | z2 A,4 G,2 | F,2 E,2 F,4 | E,4 C3 B, | %46
w: * * le de- co- *|* * * ra,||et pro|no- bis sem-|per Chri- *|
 A,G, F,2 E,2 E,2 | A,4 G,4 | z2 C,4 B,,2 | A,,2 G,,2 A,,4 | G,,4 z4 | F,6 E,2 | D,2 C,2 D,4 | %53
w: * * * stum ex-|o- ra,|et pro|no- bis sem-|per,|et pro|no- bis sem-|
 C,4 z2 C,2- | C,2 B,,2 A,,2 G,,2 | A,,4 G,,4 | G,6 F,2 | E,2 D,2 E,4 | D,4 G,4 | ^F,4 G,4 | E,8 | %61
w: per, et|_ pro no- bis|sem- per,|et pro|no- bis sem-|per Chri-|* stum|ex-|
 D,8 | !fermata!G,,8 |] %63
w: o-|ra.|

